coreui/free/cil-translate.svg

<svg xmlns="http://www.w3.org/2000/svg" viewBox="0 0 512 512">
  <path fill="var(--ci-primary-color, currentColor)" d="M230.2,356.821l14.425-30.654a573.693,573.693,0,0,1-40.421-44.777q15.881-21.418,29.594-43.958A543.369,543.369,0,0,0,292.212,104H344V72H200V16H168V72H16v32H75.77a545.123,545.123,0,0,0,71.448,153.959c6.811-8.406,13.706-17.432,20.566-27.031A512.677,512.677,0,0,1,109.13,104H258.867c-29.727,97.53-84.546,169.208-126.64,213.119-48.993,51.107-91.952,76.86-92.38,77.114l1.621,2.738L48,408l8.14,13.774c1.873-1.106,46.474-27.729,98.389-81.68q15.38-15.982,29.44-32.931A608.138,608.138,0,0,0,230.2,356.821Z" class="ci-primary"/>
  <path fill="var(--ci-primary-color, currentColor)" d="M333.722,200,328,212.516,209.379,472h35.185l36.571-80h141.73l36.571,80h35.185L370.278,200ZM328,360H295.764L328,289.484l24-52.5L408.236,360Z" class="ci-primary"/>
</svg>

<svg viewBox="0 0 512 512" xmlns="http://www.w3.org/2000/svg"><g><path d="M230.2 356.82l14.42-30.66 -.001 0c-14.25-14.21-27.75-29.16-40.43-44.78q15.881-21.42 29.59-43.958v0c25.37-41.66 45.01-86.54 58.41-133.44h51.78v-32h-144v-56h-32v56h-152v32h59.77l0 0c15.63 54.73 39.73 106.68 71.44 153.95 6.81-8.41 13.7-17.44 20.56-27.04h-.001c-25.26-39.44-45-82.14-58.66-126.93H258.8c-29.73 97.53-84.55 169.208-126.64 213.119 -49 51.1-91.952 76.86-92.38 77.11l1.62 2.73 6.53 11.02 8.14 13.77c1.87-1.11 46.47-27.73 98.389-81.68q15.38-15.99 29.44-32.94l0 0c14.47 17.4 29.9 33.97 46.23 49.65Z"/><path d="M333.722 200l-5.73 12.51 -118.63 259.48h35.185l36.57-80h141.73l36.57 80h35.185l-124.35-272Zm-5.73 160h-32.24l32.23-70.52 24-52.5 56.23 123.01Z"/></g></svg>
